X:132
T: Die scheintote Braut
N: Q0113
O: Mitteleuropa, Oesterreich, Niederoesterreich, Maria Taferl
R: Ballade, Treue - Geloebnis, Schein - Tod, Rettung; Zeitungs - Lied
M: 4/4
L: 1/8
K: C
G2 | A4G4 | c4d4 | e4d2c2 | c6
G2 | c4G4 | A4c4 | G4F2E2 | E6
G2 | A4B4 | c4d4 | A8 | G4
G4 | A4G4 | A4c4 | G4G3F | F4
A4 | A4c4 | G4E4 | G4F3E | E6
G2 | A4G4 | c4F2E2 | D6C2 | C6

@@@ Tune index: 1425
